images/client4.svg

<svg width="84" height="41" viewBox="0 0 84 41" fill="none" xmlns="http://www.w3.org/2000/svg">
<path d="M13.0782 12.5179H13.0753C10.6897 12.5179 8.75574 14.2615 8.75574 16.4123V16.4149C8.75574 18.5658 10.6897 20.3094 13.0753 20.3094H13.0782C15.4638 20.3094 17.3978 18.5658 17.3978 16.4149V16.4123C17.3978 14.2615 15.4638 12.5179 13.0782 12.5179Z" fill="#8E8F99"/>
<path d="M44.9614 11.273C44.9546 8.2855 43.6355 5.42211 41.2928 3.30942C38.9501 1.19673 35.7745 0.00678345 32.461 0V0C29.1466 0.00542712 25.9696 1.19477 23.6256 3.30761C21.2817 5.42045 19.9618 8.28461 19.955 11.273V27.7472C19.955 27.7472 44.9585 25.2364 44.9614 11.2755V11.273Z" fill="#8E8F99"/>
<path d="M0 33.1543C0.00600975 35.233 0.924346 37.225 2.55434 38.6951C4.18433 40.1652 6.39345 40.9939 8.69898 41C11.004 40.9939 13.2127 40.1656 14.8426 38.696C16.4725 37.2265 17.3912 35.2351 17.398 33.1568V21.6938C17.398 21.6938 0 23.4421 0 33.1543ZM8.69898 35.2081C8.24844 35.2081 7.80802 35.0877 7.43341 34.862C7.0588 34.6363 6.76683 34.3155 6.59441 33.9402C6.422 33.5649 6.37689 33.152 6.46479 32.7536C6.55268 32.3552 6.76964 31.9892 7.08822 31.702C7.40679 31.4147 7.81269 31.2191 8.25457 31.1399C8.69645 31.0606 9.15448 31.1013 9.57072 31.2568C9.98696 31.4122 10.3427 31.6755 10.593 32.0132C10.8433 32.351 10.9769 32.7481 10.9769 33.1543C10.9781 33.4246 10.92 33.6925 10.806 33.9426C10.692 34.1927 10.5244 34.42 10.3128 34.6115C10.1011 34.8031 9.84963 34.955 9.5727 35.0587C9.29576 35.1624 8.99885 35.2158 8.69898 35.2158V35.2081Z" fill="#8E8F99"/>
<path d="M24.6089 31.515V35.7806H23.73V31.515H24.6089ZM26.3081 33.3372V34.0228H24.3687V33.3372H26.3081ZM26.5132 31.515V32.2034H24.3687V31.515H26.5132ZM30.5269 33.5482V33.7503C30.5269 34.0745 30.4829 34.3655 30.395 34.6234C30.3071 34.8812 30.1831 35.1009 30.0229 35.2825C29.8628 35.4622 29.6714 35.5999 29.4487 35.6956C29.228 35.7913 28.9829 35.8392 28.7134 35.8392C28.4458 35.8392 28.2007 35.7913 27.978 35.6956C27.7573 35.5999 27.5659 35.4622 27.4038 35.2825C27.2417 35.1009 27.1157 34.8812 27.0259 34.6234C26.938 34.3655 26.894 34.0745 26.894 33.7503V33.5482C26.894 33.222 26.938 32.931 27.0259 32.6751C27.1138 32.4173 27.2378 32.1976 27.3979 32.0159C27.5601 31.8343 27.7515 31.6956 27.9722 31.5999C28.1948 31.5042 28.4399 31.4564 28.7075 31.4564C28.9771 31.4564 29.2222 31.5042 29.4429 31.5999C29.6655 31.6956 29.8569 31.8343 30.0171 32.0159C30.1792 32.1976 30.3042 32.4173 30.3921 32.6751C30.4819 32.931 30.5269 33.222 30.5269 33.5482ZM29.6392 33.7503V33.5423C29.6392 33.3157 29.6187 33.1165 29.5776 32.9446C29.5366 32.7728 29.4761 32.6282 29.396 32.511C29.3159 32.3939 29.2183 32.306 29.103 32.2474C28.9878 32.1868 28.856 32.1566 28.7075 32.1566C28.5591 32.1566 28.4272 32.1868 28.312 32.2474C28.1987 32.306 28.1021 32.3939 28.022 32.511C27.9438 32.6282 27.8843 32.7728 27.8433 32.9446C27.8022 33.1165 27.7817 33.3157 27.7817 33.5423V33.7503C27.7817 33.9749 27.8022 34.1741 27.8433 34.348C27.8843 34.5198 27.9448 34.6653 28.0249 34.7845C28.105 34.9017 28.2026 34.9905 28.3179 35.0511C28.4331 35.1116 28.5649 35.1419 28.7134 35.1419C28.8618 35.1419 28.9937 35.1116 29.1089 35.0511C29.2241 34.9905 29.3208 34.9017 29.3989 34.7845C29.4771 34.6653 29.5366 34.5198 29.5776 34.348C29.6187 34.1741 29.6392 33.9749 29.6392 33.7503ZM33.3804 34.6644C33.3804 34.5882 33.3687 34.5198 33.3452 34.4593C33.3237 34.3968 33.2827 34.3401 33.2222 34.2894C33.1616 34.2366 33.0767 34.1849 32.9673 34.1341C32.8579 34.0833 32.7163 34.0306 32.5425 33.9759C32.3491 33.9134 32.1655 33.8431 31.9917 33.765C31.8198 33.6868 31.6675 33.596 31.5347 33.4925C31.4038 33.387 31.3003 33.265 31.2241 33.1263C31.1499 32.9876 31.1128 32.8265 31.1128 32.6429C31.1128 32.4651 31.1519 32.304 31.23 32.1595C31.3081 32.013 31.4175 31.888 31.5581 31.7845C31.6987 31.679 31.8647 31.598 32.0562 31.5413C32.2495 31.4847 32.4614 31.4564 32.6919 31.4564C33.0063 31.4564 33.2808 31.513 33.5151 31.6263C33.7495 31.7396 33.9312 31.8948 34.0601 32.0921C34.1909 32.2894 34.2563 32.515 34.2563 32.7689H33.3833C33.3833 32.6439 33.3569 32.5345 33.3042 32.4407C33.2534 32.345 33.1753 32.2698 33.0698 32.2151C32.9663 32.1605 32.8354 32.1331 32.6772 32.1331C32.5249 32.1331 32.3979 32.1566 32.2964 32.2034C32.1948 32.2484 32.1187 32.3099 32.0679 32.388C32.0171 32.4642 31.9917 32.5501 31.9917 32.6458C31.9917 32.7181 32.0093 32.7835 32.0444 32.8421C32.0815 32.9007 32.1362 32.9554 32.2085 33.0062C32.2808 33.0569 32.3696 33.1048 32.4751 33.1497C32.5806 33.1946 32.7026 33.2386 32.8413 33.2816C33.0737 33.3519 33.2778 33.431 33.4536 33.5189C33.6313 33.6068 33.7798 33.7054 33.8989 33.8148C34.0181 33.9241 34.1079 34.0482 34.1685 34.1868C34.229 34.3255 34.2593 34.4827 34.2593 34.6585C34.2593 34.8441 34.2231 35.0101 34.1509 35.1566C34.0786 35.303 33.9741 35.4271 33.8374 35.5286C33.7007 35.6302 33.5376 35.7073 33.3481 35.7601C33.1587 35.8128 32.9468 35.8392 32.7124 35.8392C32.5015 35.8392 32.2935 35.8118 32.0884 35.7571C31.8833 35.7005 31.6968 35.6155 31.5288 35.5023C31.3628 35.389 31.23 35.2444 31.1304 35.0687C31.0308 34.8929 30.981 34.6849 30.981 34.4446H31.8628C31.8628 34.5775 31.8833 34.6898 31.9243 34.7816C31.9653 34.8734 32.0229 34.9476 32.0972 35.0042C32.1733 35.0609 32.2632 35.1019 32.3667 35.1273C32.4722 35.1526 32.5874 35.1653 32.7124 35.1653C32.8647 35.1653 32.9897 35.1439 33.0874 35.1009C33.187 35.0579 33.2603 34.9984 33.3071 34.9222C33.356 34.846 33.3804 34.7601 33.3804 34.6644ZM36.7642 31.515V35.7806H35.8882V31.515H36.7642ZM38.0767 31.515V32.2034H34.5962V31.515H38.0767ZM41.4399 35.095V35.7806H39.1694V35.095H41.4399ZM39.4565 31.515V35.7806H38.5776V31.515H39.4565ZM41.144 33.2523V33.9202H39.1694V33.2523H41.144ZM41.437 31.515V32.2034H39.1694V31.515H41.437ZM41.9526 31.515H43.5435C43.8696 31.515 44.1499 31.5638 44.3843 31.6614C44.6206 31.7591 44.8022 31.9036 44.9292 32.095C45.0562 32.2864 45.1196 32.5218 45.1196 32.8011C45.1196 33.0296 45.0806 33.2259 45.0024 33.39C44.9263 33.5521 44.8179 33.6878 44.6772 33.7972C44.5386 33.9046 44.3755 33.9905 44.188 34.055L43.9097 34.2015H42.5269L42.521 33.5159H43.5493C43.7036 33.5159 43.8315 33.4886 43.9331 33.4339C44.0347 33.3792 44.1108 33.303 44.1616 33.2054C44.2144 33.1077 44.2407 32.9944 44.2407 32.8655C44.2407 32.7288 44.2153 32.6107 44.1646 32.511C44.1138 32.4114 44.0366 32.3353 43.9331 32.2825C43.8296 32.2298 43.6997 32.2034 43.5435 32.2034H42.8315V35.7806H41.9526V31.515ZM44.3374 35.7806L43.3647 33.8792L44.2935 33.8734L45.2778 35.7396V35.7806H44.3374ZM48.9517 34.2601H47.8647V33.5745H48.9517C49.1196 33.5745 49.2563 33.5472 49.3618 33.4925C49.4673 33.4359 49.5444 33.3577 49.5933 33.2581C49.6421 33.1585 49.6665 33.0462 49.6665 32.9212C49.6665 32.7943 49.6421 32.6761 49.5933 32.5667C49.5444 32.4573 49.4673 32.3694 49.3618 32.303C49.2563 32.2366 49.1196 32.2034 48.9517 32.2034H48.1694V35.7806H47.2905V31.515H48.9517C49.2856 31.515 49.5718 31.5755 49.8101 31.6966C50.0503 31.8157 50.2339 31.9808 50.3608 32.1917C50.4878 32.4026 50.5513 32.6439 50.5513 32.9153C50.5513 33.1907 50.4878 33.429 50.3608 33.6302C50.2339 33.8314 50.0503 33.9866 49.8101 34.096C49.5718 34.2054 49.2856 34.2601 48.9517 34.2601ZM54.02 35.095V35.7806H51.7495V35.095H54.02ZM52.0366 31.515V35.7806H51.1577V31.515H52.0366ZM53.7241 33.2523V33.9202H51.7495V33.2523H53.7241ZM54.0171 31.515V32.2034H51.7495V31.515H54.0171ZM56.4985 31.515V35.7806H55.6226V31.515H56.4985ZM57.811 31.515V32.2034H54.3306V31.515H57.811ZM61.1743 35.095V35.7806H58.9038V35.095H61.1743ZM59.1909 31.515V35.7806H58.312V31.515H59.1909ZM60.8784 33.2523V33.9202H58.9038V33.2523H60.8784ZM61.1714 31.515V32.2034H58.9038V31.515H61.1714ZM61.687 31.515H63.2778C63.604 31.515 63.8843 31.5638 64.1187 31.6614C64.355 31.7591 64.5366 31.9036 64.6636 32.095C64.7905 32.2864 64.854 32.5218 64.854 32.8011C64.854 33.0296 64.8149 33.2259 64.7368 33.39C64.6606 33.5521 64.5522 33.6878 64.4116 33.7972C64.2729 33.9046 64.1099 33.9905 63.9224 34.055L63.644 34.2015H62.2612L62.2554 33.5159H63.2837C63.438 33.5159 63.5659 33.4886 63.6675 33.4339C63.769 33.3792 63.8452 33.303 63.896 33.2054C63.9487 33.1077 63.9751 32.9944 63.9751 32.8655C63.9751 32.7288 63.9497 32.6107 63.8989 32.511C63.8481 32.4114 63.771 32.3353 63.6675 32.2825C63.564 32.2298 63.4341 32.2034 63.2778 32.2034H62.5659V35.7806H61.687V31.515ZM64.0718 35.7806L63.0991 33.8792L64.0278 33.8734L65.0122 35.7396V35.7806H64.0718ZM67.7515 34.6644C67.7515 34.5882 67.7397 34.5198 67.7163 34.4593C67.6948 34.3968 67.6538 34.3401 67.5933 34.2894C67.5327 34.2366 67.4478 34.1849 67.3384 34.1341C67.229 34.0833 67.0874 34.0306 66.9136 33.9759C66.7202 33.9134 66.5366 33.8431 66.3628 33.765C66.1909 33.6868 66.0386 33.596 65.9058 33.4925C65.7749 33.387 65.6714 33.265 65.5952 33.1263C65.521 32.9876 65.4839 32.8265 65.4839 32.6429C65.4839 32.4651 65.5229 32.304 65.6011 32.1595C65.6792 32.013 65.7886 31.888 65.9292 31.7845C66.0698 31.679 66.2358 31.598 66.4272 31.5413C66.6206 31.4847 66.8325 31.4564 67.063 31.4564C67.3774 31.4564 67.6519 31.513 67.8862 31.6263C68.1206 31.7396 68.3022 31.8948 68.4312 32.0921C68.562 32.2894 68.6274 32.515 68.6274 32.7689H67.7544C67.7544 32.6439 67.728 32.5345 67.6753 32.4407C67.6245 32.345 67.5464 32.2698 67.4409 32.2151C67.3374 32.1605 67.2065 32.1331 67.0483 32.1331C66.896 32.1331 66.769 32.1566 66.6675 32.2034C66.5659 32.2484 66.4897 32.3099 66.439 32.388C66.3882 32.4642 66.3628 32.5501 66.3628 32.6458C66.3628 32.7181 66.3804 32.7835 66.4155 32.8421C66.4526 32.9007 66.5073 32.9554 66.5796 33.0062C66.6519 33.0569 66.7407 33.1048 66.8462 33.1497C66.9517 33.1946 67.0737 33.2386 67.2124 33.2816C67.4448 33.3519 67.6489 33.431 67.8247 33.5189C68.0024 33.6068 68.1509 33.7054 68.27 33.8148C68.3892 33.9241 68.479 34.0482 68.5396 34.1868C68.6001 34.3255 68.6304 34.4827 68.6304 34.6585C68.6304 34.8441 68.5942 35.0101 68.522 35.1566C68.4497 35.303 68.3452 35.4271 68.2085 35.5286C68.0718 35.6302 67.9087 35.7073 67.7192 35.7601C67.5298 35.8128 67.3179 35.8392 67.0835 35.8392C66.8726 35.8392 66.6646 35.8118 66.4595 35.7571C66.2544 35.7005 66.0679 35.6155 65.8999 35.5023C65.7339 35.389 65.6011 35.2444 65.5015 35.0687C65.4019 34.8929 65.3521 34.6849 65.3521 34.4446H66.2339C66.2339 34.5775 66.2544 34.6898 66.2954 34.7816C66.3364 34.8734 66.394 34.9476 66.4683 35.0042C66.5444 35.0609 66.6343 35.1019 66.7378 35.1273C66.8433 35.1526 66.9585 35.1653 67.0835 35.1653C67.2358 35.1653 67.3608 35.1439 67.4585 35.1009C67.5581 35.0579 67.6313 34.9984 67.6782 34.9222C67.7271 34.846 67.7515 34.7601 67.7515 34.6644Z" fill="#8E8F99"/>
</svg>

<svg xmlns="http://www.w3.org/2000/svg" width="84" height="41" fill="none"><path fill="#8E8F99" d="M13.078 12.518h-.003c-2.385 0-4.32 1.744-4.32 3.894v.003c0 2.15 1.935 3.894 4.32 3.894h.003c2.386 0 4.32-1.743 4.32-3.894v-.003c0-2.15-1.934-3.894-4.32-3.894ZM44.961 11.273c-.006-2.987-1.325-5.85-3.668-7.964C38.95 1.197 35.775.007 32.46 0c-3.314.005-6.491 1.195-8.835 3.308-2.344 2.112-3.664 4.977-3.67 7.965v16.474s25.003-2.51 25.005-16.471v-.003ZM0 33.154c.006 2.079.924 4.071 2.554 5.541 1.63 1.47 3.84 2.299 6.145 2.305 2.305-.006 4.514-.834 6.144-2.304 1.63-1.47 2.548-3.46 2.555-5.54V21.695S0 23.442 0 33.154Zm8.699 2.054c-.45 0-.891-.12-1.266-.346a2.115 2.115 0 0 1-.839-.922 1.867 1.867 0 0 1-.13-1.186 2 2 0 0 1 .624-1.052 2.365 2.365 0 0 1 1.167-.562c.441-.08.9-.039 1.316.117.416.155.772.418 1.022.756s.384.735.384 1.141c.001.27-.057.539-.171.789-.114.25-.282.477-.493.669a2.31 2.31 0 0 1-.74.447 2.495 2.495 0 0 1-.874.157v-.008ZM24.609 31.515v4.266h-.879v-4.266h.879Zm1.7 1.822v.686h-1.94v-.686h1.94Zm.204-1.822v.688H24.37v-.688h2.144Zm4.014 2.033v.202c0 .325-.044.616-.132.873a1.92 1.92 0 0 1-.372.66c-.16.18-.352.317-.574.413a1.83 1.83 0 0 1-.736.143c-.267 0-.512-.048-.735-.143a1.648 1.648 0 0 1-.574-.413 1.93 1.93 0 0 1-.378-.66 2.696 2.696 0 0 1-.132-.873v-.202c0-.326.044-.617.132-.873a1.92 1.92 0 0 1 .372-.659c.162-.182.354-.32.574-.416.223-.096.468-.144.735-.144.27 0 .515.048.736.144.223.096.414.234.574.416.162.182.287.401.375.66.09.255.135.546.135.872Zm-.888.202v-.208c0-.226-.02-.425-.061-.597a1.295 1.295 0 0 0-.182-.434.784.784 0 0 0-.293-.264.838.838 0 0 0-.396-.09c-.148 0-.28.03-.395.09a.791.791 0 0 0-.29.264 1.333 1.333 0 0 0-.179.434 2.587 2.587 0 0 0-.061.597v.208c0 .225.02.424.061.598.041.172.102.317.182.437.08.117.178.206.293.266.115.06.247.091.395.091.149 0 .28-.03.396-.09a.786.786 0 0 0 .29-.267c.078-.12.138-.265.179-.437a2.61 2.61 0 0 0 .061-.598Zm3.741.914a.563.563 0 0 0-.035-.205.388.388 0 0 0-.123-.17 1.09 1.09 0 0 0-.255-.155 3.587 3.587 0 0 0-.425-.158 5.377 5.377 0 0 1-.55-.211 2.261 2.261 0 0 1-.457-.272 1.228 1.228 0 0 1-.31-.367 1.01 1.01 0 0 1-.112-.483 1 1 0 0 1 .117-.483c.078-.147.188-.272.328-.375.14-.106.307-.187.498-.244.194-.056.405-.085.636-.085.314 0 .589.057.823.17.234.114.416.269.545.466.13.197.196.423.196.677h-.873a.658.658 0 0 0-.079-.328.535.535 0 0 0-.234-.226.835.835 0 0 0-.393-.082.908.908 0 0 0-.38.07.507.507 0 0 0-.23.185.454.454 0 0 0-.075.258c0 .072.017.138.052.196a.594.594 0 0 0 .165.164c.072.051.16.099.266.144.106.045.228.089.366.132.233.07.437.149.613.237.177.088.326.186.445.296.12.11.209.233.27.372.06.139.09.296.09.472a1.024 1.024 0 0 1-.422.87c-.136.101-.3.178-.489.231-.19.053-.401.08-.636.08-.21 0-.419-.028-.624-.083a1.894 1.894 0 0 1-.56-.255 1.285 1.285 0 0 1-.398-.433c-.1-.176-.149-.384-.149-.624h.882c0 .133.02.245.061.337a.563.563 0 0 0 .173.222.743.743 0 0 0 .27.123c.105.026.22.038.345.038a.939.939 0 0 0 .375-.064.463.463 0 0 0 .293-.437Zm3.384-3.149v4.266h-.876v-4.266h.876Zm1.313 0v.688h-3.48v-.688h3.48Zm3.363 3.58v.686h-2.27v-.686h2.27Zm-1.983-3.58v4.266h-.88v-4.266h.88Zm1.687 1.737v.668h-1.975v-.668h1.975Zm.293-1.737v.688h-2.268v-.688h2.268Zm.516 0h1.59c.327 0 .607.049.841.146.237.098.418.243.545.434.127.191.19.427.19.706 0 .229-.038.425-.117.589a1.1 1.1 0 0 1-.325.407 1.685 1.685 0 0 1-.489.258l-.278.147h-1.383l-.006-.686h1.028a.805.805 0 0 0 .384-.082.537.537 0 0 0 .229-.229.703.703 0 0 0 .079-.34.773.773 0 0 0-.076-.354.514.514 0 0 0-.232-.228.855.855 0 0 0-.39-.08h-.712v3.578h-.878v-4.266Zm2.384 4.266-.972-1.902.928-.006.985 1.867v.04h-.94Zm4.615-1.52h-1.087v-.686h1.087a.892.892 0 0 0 .41-.082.527.527 0 0 0 .231-.235.86.86 0 0 0 0-.691.592.592 0 0 0-.231-.264.76.76 0 0 0-.41-.1h-.783v3.578h-.878v-4.266h1.66c.335 0 .62.06.86.182.24.119.423.284.55.495.127.21.19.452.19.723 0 .276-.063.514-.19.715-.127.201-.31.357-.55.466-.24.11-.525.164-.86.164Zm5.068.834v.686h-2.27v-.686h2.27Zm-1.983-3.58v4.266h-.88v-4.266h.88Zm1.687 1.737v.668H51.75v-.668h1.974Zm.293-1.737v.688H51.75v-.688h2.268Zm2.481 0v4.266h-.875v-4.266h.876Zm1.313 0v.688h-3.48v-.688h3.48Zm3.363 3.58v.686h-2.27v-.686h2.27Zm-1.983-3.58v4.266h-.879v-4.266h.879Zm1.687 1.737v.668h-1.974v-.668h1.974Zm.293-1.737v.688h-2.267v-.688h2.267Zm.516 0h1.59c.327 0 .607.049.842.146.236.098.418.243.545.434.126.191.19.427.19.706 0 .229-.04.425-.117.589a1.103 1.103 0 0 1-.325.407 1.687 1.687 0 0 1-.49.258l-.278.147h-1.383l-.006-.686h1.029a.805.805 0 0 0 .383-.082.538.538 0 0 0 .229-.229.704.704 0 0 0 .08-.34.771.771 0 0 0-.077-.354.514.514 0 0 0-.232-.228.855.855 0 0 0-.39-.08h-.711v3.578h-.879v-4.266Zm2.385 4.266-.973-1.902.929-.006.984 1.867v.04h-.94Zm3.68-1.117a.565.565 0 0 0-.036-.205.388.388 0 0 0-.123-.17 1.09 1.09 0 0 0-.255-.155 3.587 3.587 0 0 0-.424-.158 5.377 5.377 0 0 1-.551-.211 2.261 2.261 0 0 1-.457-.272 1.228 1.228 0 0 1-.31-.367 1.01 1.01 0 0 1-.112-.483 1 1 0 0 1 .117-.483c.078-.147.188-.272.328-.375.14-.106.307-.187.498-.244.194-.056.405-.085.636-.085.314 0 .589.057.823.17.235.114.416.269.545.466.131.197.196.423.196.677h-.873a.658.658 0 0 0-.079-.328.535.535 0 0 0-.234-.226.835.835 0 0 0-.393-.082.908.908 0 0 0-.38.07.507.507 0 0 0-.229.185.454.454 0 0 0-.076.258c0 .072.017.138.052.196a.594.594 0 0 0 .165.164c.072.051.16.099.266.144.106.045.228.089.366.132.233.07.437.149.613.237.177.088.326.186.445.296.12.11.209.233.27.372.06.139.09.296.09.472a1.024 1.024 0 0 1-.422.87c-.136.101-.3.178-.489.231-.19.053-.401.08-.635.08-.211 0-.42-.028-.624-.083a1.894 1.894 0 0 1-.56-.255 1.285 1.285 0 0 1-.399-.433c-.1-.176-.149-.384-.149-.624h.882c0 .133.02.245.061.337a.563.563 0 0 0 .173.222.743.743 0 0 0 .27.123c.105.026.22.038.346.038a.939.939 0 0 0 .374-.064.463.463 0 0 0 .293-.437Z"/></svg>
